icons/list-ordered.svg

<svg xmlns="http://www.w3.org/2000/svg" viewBox="0 0 24 24"><path fill="#ffd54f" d="M7 13v-2h14v2zm0 6v-2h14v2zM7 7V5h14v2zM3 8V5H2V4h2v4zm-1 9v-1h3v4H2v-1h2v-.5H3v-1h1V17zm2.25-7a.75.75 0 0 1 .75.75c0 .2-.08.39-.21.52L3.12 13H5v1H2v-.92L4 11H2v-1z"/></svg>

<!--
  - The MIT License (MIT)
  -
  - Copyright (c) 2015-2024 Elior "Mallowigi" Boukhobza
  -
  - Permission is hereby granted, free of charge, to any person obtaining a copy
  - of this software and associated documentation files (the "Software"), to deal
  - in the Software without restriction, including without limitation the rights
  - to use, copy, modify, merge, publish, distribute, sublicense, and/or sell
  - copies of the Software, and to permit persons to whom the Software is
  - furnished to do so, subject to the following conditions:
  -
  - The above copyright notice and this permission notice shall be included in all
  - copies or substantial portions of the Software.
  -
  - THE SOFTWARE IS PROVIDED "AS IS", WITHOUT WARRANTY OF ANY KIND, EXPRESS OR
  - IMPLIED, INCLUDING BUT NOT LIMITED TO THE WARRANTIES OF MERCHANTABILITY,
  - FITNESS FOR A PARTICULAR PURPOSE AND NONINFRINGEMENT. IN NO EVENT SHALL THE
  - AUTHORS OR COPYRIGHT HOLDERS BE LIABLE FOR ANY CLAIM, DAMAGES OR OTHER
  - LIABILITY, WHETHER IN AN ACTION OF CONTRACT, TORT OR OTHERWISE, ARISING FROM,
  - OUT OF OR IN CONNECTION WITH THE SOFTWARE OR THE USE OR OTHER DEALINGS IN THE
  - SOFTWARE.
  -
  -->

<svg  xmlns="http://www.w3.org/2000/svg" xmlns:xlink="http://www.w3.org/1999/xlink" version="1.1" width="16px"
     height="16px" viewBox="0 0 24 24">
  <path fill="#FFD54F"
        d="M7,13V11H21V13H7M7,19V17H21V19H7M7,7V5H21V7H7M3,8V5H2V4H4V8H3M2,17V16H5V20H2V19H4V18.5H3V17.5H4V17H2M4.25,10A0.75,0.75 0 0,1 5,10.75C5,10.95 4.92,11.14 4.79,11.27L3.12,13H5V14H2V13.08L4,11H2V10H4.25Z"/>
</svg>
